X:21
T:Estampie Reale
T:Danse royale
U: M = !tenuto!	
U: H = !breath!
C:Anonyme (XIIIe siècle)
Z:Transcrit et/ou corrigé par B@D - 2005-04-24
Z:Pour toute observation mailto:-@-
M:3/4
L:1/4
Q:"A un temps, bien rythmé  " 3/4=80
K:G
V:1
(Ae2) | (e2d) | c/B/McMd | B2 z | (G2A) | (c2d) | (e/d/) e/c/ d | Me2 Me |
(e/d/)e(c/d/) | e3 | e2z | (Ae2) | (e2d) | c/B/McMd | B2z | (G2A) |
(c2d) | (e/d/) e/c/ d | Me2Me | (e/d/) e/d/ (c/B/) | Mc2Mc | (dc/B/)c | Hc3 ||
ga(g/f/) | (e/d/)MeMf | (g/f/) e/d/ (c/B/) | c2z | (G2A) | (c2d) | (e/d/) e/c/ d |
Me2Me | (e/d/) e (c/d/) | e3 | e2z || (aba) | (g/f/) (gf) | (def) | Mg2Mg | d3 |
c2z | (G2A) | (c2d) | (e/d/) e/c/ d | Me2Me | (e/d/) e/d/ (c/B/) | Mc2Mc | (dc/B/) c | Hc3 ||
c'(b/g/) g/f/ | (g2a) | (g=fe) | d2z | (G2A) | (c2d) | (e/d/) e/c/ d | Me2Me | 
(e/d/) e(c/d/) | e3 | e2z || (ABA) | (G2c) | (d/e/) =f/g/ f | e3 | a(b/a/) (g/^f/) | e2z |
(G2A) | (c2d) | (e/d/) e/c/ d | Me2Me | (e/d/) e/d/ (c/B/) | Mc2Mc | (dc/B/)c Hc3 ||
(efe) | d3 | (e/d/) c/B/ (A/B/) | c (e/f/) (g/f/) | (ga2) | g2z | (G2A) | (c2d) | (e/d/) e/c/ d | 
Me2Me | (e/d/) e (c/d/) | e3 | e2z || b(b/a/) g/f/ | (e2d) | (cda) | (b/a/) g/a/ b | (e2d/e/) | 
f2z || (G2A) | (c2d) | (e/d/) e/c/ d | Me2Me | (e/d/) e/d/ (c/B/) | Mc2Mc | (dc/B/)c | c3 |]





%%header "$P0	 $IR 	$P1"
%%footer $D - Éditions Galouvielle - 2009 - À usage librement privé dans le cadre familial

